style-guide/assets/xd-icons-sound-small.svg

<?xml version="1.0" encoding="UTF-8"?>
<svg width="18px" height="18px" viewBox="0 0 18 18" version="1.1" xmlns="http://www.w3.org/2000/svg" xmlns:xlink="http://www.w3.org/1999/xlink">
    <!-- Generator: Sketch 51.3 (57544) - http://www.bohemiancoding.com/sketch -->
    <title>sound</title>
    <desc>Created with Sketch.</desc>
    <defs></defs>
    <g id="sound" stroke="none" stroke-width="1" fill="none" fill-rule="evenodd">
        <path d="M7,13.5866 L4.707,11.2936 C4.52,11.1066 4.265,11.0006 4,11.0006 L2,11.0006 L2,7.0006 L4,7.0006 C4.265,7.0006 4.52,6.8956 4.707,6.7076 L7,4.4146 L7,13.5866 Z M8.383,1.0766 C8.756,1.2316 9,1.5966 9,2.0006 L9,16.0006 C9,16.4046 8.756,16.7706 8.383,16.9246 C8.259,16.9756 8.129,17.0006 8,17.0006 C7.74,17.0006 7.484,16.8996 7.293,16.7076 L3.586,13.0006 L1,13.0006 C0.448,13.0006 0,12.5536 0,12.0006 L0,6.0006 C0,5.4476 0.448,5.0006 1,5.0006 L3.586,5.0006 L7.293,1.2936 C7.579,1.0066 8.007,0.9206 8.383,1.0766 Z M13.2202,5.5652 C13.7382,6.6352 14.0002,7.7922 14.0002,9.0012 C14.0002,10.2102 13.7382,11.3662 13.2202,12.4362 C13.0472,12.7932 12.6912,13.0012 12.3192,13.0012 C12.1732,13.0012 12.0252,12.9692 11.8852,12.9012 C11.3872,12.6612 11.1792,12.0632 11.4192,11.5652 C11.8042,10.7682 12.0002,9.9052 12.0002,9.0012 C12.0002,8.0962 11.8042,7.2332 11.4192,6.4362 C11.1792,5.9382 11.3872,5.3402 11.8852,5.1002 C12.3812,4.8592 12.9792,5.0692 13.2202,5.5652 Z M15.2612,1.364 C17.0272,3.501 18.0002,6.214 18.0002,9.001 C18.0002,11.788 17.0272,14.501 15.2612,16.637 C15.0632,16.878 14.7782,17.001 14.4902,17.001 C14.2652,17.001 14.0392,16.926 13.8532,16.772 C13.6142,16.574 13.4902,16.288 13.4902,16 C13.4902,15.776 13.5652,15.55 13.7192,15.364 C15.1902,13.584 16.0002,11.324 16.0002,9.001 C16.0002,6.677 15.1902,4.418 13.7192,2.637 C13.5652,2.452 13.4902,2.225 13.4902,2.002 C13.4902,1.714 13.6142,1.427 13.8532,1.229 C14.2782,0.878 14.9082,0.937 15.2612,1.364 Z" id="Fill-6" fill="#000000"></path>
    </g>
</svg>

<svg viewBox="0 0 18 18" xmlns="http://www.w3.org/2000/svg">
  <path d="M7 13.587l-2.293-2.293A1.002 1.002 0 0 0 4 11H2V7h2c.265 0 .52-.105.707-.293L7 4.415v9.172zm1.383-12.51c.373.155.617.52.617.924v14a1 1 0 0 1-1.707.707L3.586 13H1a1 1 0 0 1-1-1V6a1 1 0 0 1 1-1h2.586l3.707-3.707a.996.996 0 0 1 1.09-.217zm4.837 4.488c.518 1.07.78 2.227.78 3.436a7.818 7.818 0 0 1-.78 3.435 1 1 0 1 1-1.8-.87c.384-.798.58-1.66.58-2.565s-.196-1.768-.58-2.565a1 1 0 0 1 1.8-.87zm2.041-4.201a12.013 12.013 0 0 1 0 15.273.993.993 0 0 1-.77.364 1 1 0 0 1-.771-1.637A10.007 10.007 0 0 0 16 9.001c0-2.324-.81-4.583-2.28-6.364a1.002 1.002 0 0 1 .134-1.408 1 1 0 0 1 1.407.135z"/>
</svg>
